!!!!SEGMENT: pl-kc--40102-iii-1-saf--001-042_zielenski-mikolaj--offertoria-totius-anni-motteto-de-transfiguratione-domini-assumpsit-iesus-petrum-et-iacobum.krn
!!!cenid: 16xx:1521
!!!COM: Zieleński, Mikołaj
!!!COM-rismID: pe30013481
!!!CDT: <1611->1611
!!!CNT: Polish
!!!GTL: Offertoria totius anni
!!!OTL: Motteto de Transfiguratione Domini/Assumpsit Iesus Petrum et Iacobum
!!!OMV: 042
!!!PDT: 1611
!!!AGN:
!!!SMS-siglum: PL-Kc
!!!SMS-shelfmark: 40102 III/1 Saf.
!!!SMS-shelfwork: 001-042 G
!!!SMS-variant:
!!!SMS-altvar:
!!!NIFC-rismSourceID: 990069886
!!!NIFC-rismChildID: 990069886
!!!NIFC-islandoraID: none
!!!URL-pdf-islandora:
!!!URL-scan: https://cyfrowe.mnk.pl/dlibra/publication/24235/edition/23926/content?ref=desc @EN{Scan on The National Museum in Krakow Website} @PL{Skany w portalu Biblioteka Cyfrowa Muzeum Narodowego w Krakowie}
!!!IIIF:
!!!ONB-nifc: UWAGA: str. 37-38. Uwaga: W xml metrum 2/1 do źródłowego C| i odpowiednio 3/1 do 3/2
!!!AIN: 4 organ
!!!key: F:lyd
**kern	**kern	**kern	**kern
*group1	*group1	*group1	*group1
*part4	*part3	*part2	*part1
*staff4	*staff3	*staff2	*staff1
*I""Organo	*	*	*
*Iorgan	*Iorgan	*Iorgan	*Iorgan
*ICklav	*ICklav	*ICklav	*ICklav
*clefF4	*clefC3	*clefF3	*clefG2
*k[b-]	*k[b-]	*k[b-]	*k[b-]
*F:lyd	*F:lyd	*F:lyd	*F:lyd
*M2/1	*M2/1	*M2/1	*M2/1
*met(C|)	*met(C|)	*met(C|)	*met(C|)
=1	=1	=1	=1
!LO:TX:t=P:problem=all/middle&colon; global	!LO:TX:t=P:problem=all/middle&colon; global	!LO:TX:t=P:problem=all/middle&colon; global	!LO:TX:t=P:problem=all/middle&colon; global
!LO:TX:t=P:problem=all\middle&colon; global	!LO:TX:t=P:problem=all\middle&colon; global	!LO:TX:t=P:problem=all\middle&colon; global	!LO:TX:t=P:problem=all\middle&colon; global
!	!	!LO:TX:t=P:problem=zdwojony znak przykluczowy	!
!	!	!LO:TX:a:t=Aſſumpſit Ieſus Petrum,& Iacobum.	!LO:TX:a:t=Motteto de Tranafiguratione'Domini. A 8.
00r	00r	1F	1f
.	.	2F/	2a/
.	.	2D/	2b-/
=2-	=2-	=2-	=2-
.	.	2C/	2cc\
.	.	2F/	2cc\
.	.	1BB-	1dd
=3	=3	=3	=3
00r	00r	2.F/	2cc\
.	.	.	2.ff\
.	.	4E/	.
.	.	1D	.
.	.	.	4ee\
.	.	.	4dd\
.	.	.	4cc\
=4-	=4-	=4-	=4-
.	.	2G\	4b-/
.	.	.	4g/
.	.	2C/	2.cc\
.	.	1G	.
!	!	!	!LO:N:acc=#
.	.	.	8bn/
.	.	.	8a/
.	.	.	2b/
=5	=5	=5	=5
1C	1c	1C	1cc
2C/	2e\	1r	1r
2AA/	2f#X\	.	.
=6-	=6-	=6-	=6-
2GG/	2g\	0r	0r
2C/	2g\	.	.
1FF	1a	.	.
=7	=7	=7	=7
2C/	2g\	00r	00r
2.C/	1e	.	.
4BB-/	.	.	.
4AA/	2.a\	.	.
4GG/	.	.	.
=8-	=8-	=8-	=8-
2FF/	.	.	.
.	4g\	.	.
1BB-	4f\	.	.
.	4e\	.	.
.	4f\	.	.
.	4d\	.	.
4AA/	2g\	.	.
4GG/	.	.	.
=9	=9	=9	=9
4AA/	2g\	0r	0r
4FF/	.	.	.
4AA/	2.f\	.	.
4BB-/	.	.	.
2C/	.	.	.
.	8e\	.	.
.	8d\	.	.
2C/	2e\	.	.
=10	=10	=10	=10
1FF	1f	2r	2r
.	.	2F/	2cc\
1r	1r	2D/	2ff\
.	.	2G\	2dd\
=11	=11	=11	=11
!LO:TX:b:t=Partitura Nicolai Zielenski.	!	!	!
0r	0r	4C/	4ee\
.	.	2F/	2cc\
.	.	4D/	4dd\
.	.	1G	1b-
=12-	=12-	=12-	=12-
2r	2r	1F	1a
2F\	2c/	.	.
2BB-/	2f\	1r	1r
2D/	2d\	.	.
=13	=13	=13	=13
2.C/	2.e\	2r	2r
.	.	2C/	2ee\
4C/	4g\	.	.
2AA/	2f\	2C/	2ff\
2BB-/	2f\	2D/	2dd\
=14-	=14-	=14-	=14-
4FF/	4f\	4A\	4cc\
2GG/	4B-/	2D/	4.b-/
.	4G/	.	.
.	.	.	8g/
4DD/	2g\	4C/	2cc\
1GG	.	1D	.
!	!	!	!LO:N:acc=#
.	4f\	.	8bn/
.	.	.	8a/
.	2d\	.	2b/
=15	=15	=15	=15
1CC	1g	2.C/	2cc\
.	.	.	2cc\
.	.	4c\	.
1r	1r	2B-\	2dd\
.	.	2G\	2ee\
=16-	=16-	=16-	=16-
!LO:TX:b:t=E 3	!	!	!
0r	0r	2.F/	2ff\
.	.	.	2ee\
.	.	4c\	.
.	.	4C/	2r
.	.	4C/	.
.	.	4D/	2g/
.	.	8E/	.
.	.	8F/	.
*custos:D	*custos:d	*custos:G	*custos:g
!LO:PB:g=original	!LO:PB:g=original	!LO:PB:g=original	!LO:PB:g=original
=17	=17	=17	=17
00r	00r	2.G\	4g/
.	.	.	4a/
.	.	.	4b-/
.	.	8F/	4cc\
.	.	8E/	.
.	.	4D/	2.dd\
.	.	4E/	.
.	.	4F/	.
.	.	4G\	8cc\
.	.	.	8b-\
=18-	=18-	=18-	=18-
.	.	2A\	4cc\
.	.	.	4a/
.	.	4D/	2.ff\
.	.	4D/	.
.	.	2.F/	.
.	.	.	4ee\
.	.	.	[y2dd\
.	.	8E/	.
.	.	8D/	.
=19	=19	=19	=19
!	!	!	!LO:N:xstem:cue
1r	1r	1A	4dd\]
.	.	.	8cc#X\
.	.	.	8b-\
.	.	.	2cc#\
2r	2r	1D	1dd
2D/	2d\	.	.
=20-	=20-	=20-	=20-
2C/	2e\	0r	0r
2AA/	2f#X\	.	.
4GG/	1g	.	.
4AA/	.	.	.
4BB-/	.	.	.
4GG/	.	.	.
=21	=21	=21	=21
1.D	2f\	00r	00r
.	2a\	.	.
.	4a\	.	.
.	4g\	.	.
2D/	4f\	.	.
.	4e\	.	.
=22-	=22-	=22-	=22-
4D/	1f	.	.
4C/	.	.	.
4BB-/	.	.	.
4AA/	.	.	.
2GG/	2g\	.	.
2D/	[y2a\	.	.
=23	=23	=23	=23
!	!LO:N:xstem:cue	!	!
2C/	4a\]	00r	00r
.	4g\	.	.
2GG/	2.g\	.	.
1D	.	.	.
.	8f#X\	.	.
.	8e\	.	.
.	2f#\	.	.
=24-	=24-	=24-	=24-
2GG/	2g\	.	.
2C/	2e\	.	.
2AA/	2e\	.	.
4FF/	4fny\	.	.
4FF/	4a\	.	.
=25	=25	=25	=25
2C/	2g\	2r	2r
2FF/	2a\	4r	4r
.	.	4c\	4cc\
1r	1r	2A\	2cc\
.	.	4F/	2.ff\
.	.	4F/	.
=26-	=26-	=26-	=26-
1r	1r	1G	.
.	.	.	4ee\
.	.	.	2dd\
2r	2r	2C/	2ee\
2C/	2c/	2C/	2ee\
=27	=27	=27	=27
2AA/	2e\	2C/	2cc\
4FF/	4A/	4C/	4ff\
4FF/	4f\	4C/	4ff\
1C	1c	1C	4ee\
.	.	.	2ff\
.	.	.	4ee\
=28-	=28-	=28-	=28-
1FF	1c	2C/	2ff\
.	.	1F	1ff
1r	1r	.	.
.	.	2C/	2ee\
=29	=29	=29	=29
00r	00r	2.D/	2.dd\
.	.	4A\	4cc\
.	.	2B-\	2b-/
.	.	2G\	2b-/
=30-	=30-	=30-	=30-
.	.	2d\	2a/
.	.	1B-	1dd
.	.	2c\	[y2cc\
=31	=31	=31	=31
!	!	!	!LO:N:xstem:cue
1r	1r	1G	4cc\]
!	!	!	!LO:N:acc=#
.	.	.	8bn/
.	.	.	8a/
.	.	.	2b/
2r	2r	1C	1cc
1C/	1g\	.	.
=32-	=32-	=32-	=32-
.	.	0r	0r
2FF/	2f\	.	.
2.C/	2.e\	.	.
4GG/	4d\	.	.
=33	=33	=33	=33
2BB-/	2d\	00r	00r
2C/	2c/	.	.
!	!LO:N:acc=#	!	!
2GG/	2Bn/	.	.
1DD/	2.d\	.	.
=34-	=34-	=34-	=34-
.	4c/	.	.
2AA/	2.c/	.	.
1GG	.	.	.
!	!LO:N:acc=#	!	!
.	8Bn/	.	.
.	8A/	.	.
.	2B/	.	.
=35	=35	=35	=35
1CC	1c	1r	1r
1.FF	1.c	1.C	1.ff
=36-	=36-	=36-	=36-
2FF/	2f\	2C/	2ff\
[y1BB-	[y1f	[y1D	[y1dd
=37	=37	=37	=37
!LO:N:vis=4:xstem:cue	!LO:N:vis=4:xstem:cue	!LO:N:vis=4:xstem:cue	!LO:N:vis=4:xstem:cue
2BB-/]	2f\]	2D/]	2dd\]
2BB-/	2d\	2D/	2dd\
1.GG	1.d	1.D	1.gg
=38-	=38-	=38-	=38-
2GG/	2d\	2D/	2dd\
1C	1G	[<1C	1ee
=39	=39	=39	=39
1FF	1c	1C]	1ff
2BB-/	1B-	2D/	2dd\
4AA/	.	2BB-/	2.ee\
4GG/	.	.	.
=40-	=40-	=40-	=40-
1.AA	2A/	2C#X/	.
.	.	.	4dd\
.	2.a\	2D/	1dd
.	.	1E	.
.	4g\	.	.
2AA/	2e\	.	2cc#X\
=41	=41	=41	=41
*M3/1	*M3/1	*M3/1	*M3/1
*met(3/2)	*met(3/2)	*met(3/2)	*met(3/2)
0.DD	0.f	0D	0dd
.	.	1D	1ff
=42-	=42-	=42-	=42-
0.r	0.r	1.A	0ee
.	.	2B-\	.
.	.	1c	1ee
=43-	=43-	=43-	=43-
!	!	!	!LO:TX:t=P:problem=do końca 44 taktu nuty zaczernione
00.r	00.r	1.G	0dd
.	.	2A\	.
.	.	1B-	1dd
=44-	=44-	=44-	=44-
.	.	1F	1cc
.	.	0c	0cc
*custos:FF	*custos:a	*custos:F	*custos:cc
!LO:LB:g=original	!LO:LB:g=original	!LO:LB:g=original	!LO:LB:g=original
=45	=45	=45	=45
1r	1r	0.F	0.cc
1r	1r	.	.
1FF	1a	.	.
=46-	=46-	=46-	=46-
1.C	0g	00.r	00.r
2D/	.	.	.
1E	1g	.	.
=47-	=47-	=47-	=47-
!	!LO:TX:t=P:problem=do końca 48 takrtu nuty zaczernione	!	!
2F\	0f	.	.
2E\	.	.	.
2D/	.	.	.
2C/	.	.	.
1BB-	1f	.	.
=48-	=48-	=48-	=48-
1C	1e	0.r	0.r
0GG	0d	.	.
=49	=49	=49	=49
0C	0e	1r	1r
.	.	1r	1r
1C	1c	1C	1cc
=50-	=50-	=50-	=50-
1.GG	1g	1.BB-	0dd
.	1d	.	.
2AA/	.	2C/	.
1BB-	1d	2D/	1dd
.	.	2BB-/	.
=51-	=51-	=51-	=51-
!LO:TX:t=P:problem=do końca 52 taktu nuty zaczernione	!	!	!
0FF	1.A	0.C	1.cc
.	2B-/	.	2dd\
1C	1c	.	1ee
=52-	=52-	=52-	=52-
1FF	1c	0.C	0ff
0C	0c	.	.
.	.	.	1ee
=53	=53	=53	=53
0FF	0A	0C	0ff
1C	1c	1C	1cc
=54-	=54-	=54-	=54-
1.GG	1g	1.BB-	0dd
.	1d	.	.
2AA/	.	2C/	.
1BB-	1d	2D/	1dd
.	.	2BB-/	.
=55-	=55-	=55-	=55-
0FF	1.A	0.C	1.cc
.	2B-/	.	2dd\
1C	1c	.	1ee
=56-	=56-	=56-	=56-
1FF	1c	0.C	0ff
0C	0c	.	.
.	.	.	1ee
=57-	=57-	=57-	=57-
0.FFl	0.Al	0.Cl	0.ffl
==	==	==	==
*-	*-	*-	*-
!!!system-decoration: g1
!!!RDF**kern: > = above
!!!RDF**kern: < = below
!!!RDF**kern: l = terminal long
!!!ENC: Filip Voros
!!!END: 2021-12-15
!!!EED: Jędrzej Mróz
!!!EEV: 2021-12-21
!!!YEC: Copyright 2022 Narodowy Instytut Fryderyka Chopina (https://polishscores.org)
!!!YEM: License CC-BY-4.0 (https://creativecommons.org/licenses/by/4.0)
